SVG/krw.svg

<?xml version="1.0" encoding="utf-8"?>
<!-- Generated by IcoMoon.io -->
<!DOCTYPE svg PUBLIC "-//W3C//DTD SVG 1.1//EN" "http://www.w3.org/Graphics/SVG/1.1/DTD/svg11.dtd">
<svg version="1.1" xmlns="http://www.w3.org/2000/svg" xmlns:xlink="http://www.w3.org/1999/xlink" width="14" height="14" viewBox="0 0 14 14">
<path fill="#444444" d="M4.016 9.336l0.633-2.336h-1.242l0.586 2.344q0.008 0.008 0.008 0.023t0.008 0.023q0-0.008 0.004-0.027t0.004-0.027zM4.922 6l0.273-1h-2.281l0.25 1h1.758zM6.422 6h1.086l-0.273-1h-0.547zM9.93 9.344l0.609-2.344h-1.266l0.633 2.336q0 0.008 0.004 0.027t0.012 0.027q0-0.008 0.004-0.023t0.004-0.023zM10.797 6l0.258-1h-2.32l0.266 1h1.797zM14 6.25v0.5q0 0.109-0.070 0.18t-0.18 0.070h-1.664l-1.281 4.813q-0.055 0.187-0.242 0.187h-1.242q-0.187 0-0.242-0.187l-1.297-4.813h-1.633l-1.305 4.813q-0.055 0.187-0.242 0.187h-1.242q-0.086 0-0.152-0.055t-0.082-0.133l-1.25-4.813h-1.625q-0.109 0-0.18-0.070t-0.070-0.18v-0.5q0-0.109 0.070-0.18t0.18-0.070h1.367l-0.258-1h-1.109q-0.109 0-0.18-0.070t-0.070-0.18v-0.5q0-0.109 0.070-0.18t0.18-0.070h0.852l-0.695-2.687q-0.039-0.117 0.039-0.219 0.078-0.094 0.203-0.094h1.070q0.203 0 0.242 0.187l0.703 2.812h2.805l0.758-2.812q0.055-0.187 0.242-0.187h0.984q0.187 0 0.242 0.187l0.766 2.812h2.852l0.727-2.812q0.039-0.187 0.242-0.187h1.070q0.125 0 0.203 0.094 0.078 0.102 0.039 0.219l-0.711 2.687h0.867q0.109 0 0.18 0.070t0.070 0.18v0.5q0 0.109-0.070 0.18t-0.18 0.070h-1.133l-0.266 1h1.398q0.109 0 0.18 0.070t0.070 0.18z"></path>
</svg>

<svg xmlns="http://www.w3.org/2000/svg" viewBox="0 0 14 14"><path d="M4.016 9.336L4.65 7H3.406l.586 2.344Q4 9.352 4 9.367t.01.023q0-.008.003-.027t.004-.027zM4.922 6l.273-1h-2.28l.25 1H4.92zm1.5 0h1.086l-.273-1h-.547zM9.93 9.344L10.54 7H9.272l.633 2.336q0 .008.004.027t.01.027q0-.008.004-.023t.004-.023zM10.797 6l.258-1h-2.32L9 6h1.8zM14 6.25v.5q0 .11-.07.18t-.18.07h-1.664l-1.28 4.813q-.056.187-.243.187H9.32q-.186 0-.24-.187L7.78 7H6.15l-1.306 4.813Q4.79 12 4.602 12H3.36q-.086 0-.152-.055t-.082-.133L1.876 7H.25q-.108 0-.18-.07T0 6.75v-.5q0-.11.07-.18T.25 6h1.37l-.26-1H.25q-.108 0-.18-.07T0 4.75v-.5q0-.11.07-.18T.25 4h.853L.408 1.31q-.04-.117.04-.22Q.524 1 .65 1h1.07q.203 0 .242.186l.703 2.812H5.47l.758-2.812Q6.283 1 6.47 1h.984q.187 0 .242.186l.766 2.812h2.852l.727-2.812Q12.08 1 12.286 1h1.07q.125 0 .203.093.078.102.04.22L12.885 4h.867q.11 0 .18.07t.07.18v.5q0 .107-.07.18t-.18.07H12.62l-.266 1h1.398q.11 0 .18.07t.07.18z" /></svg>
